!!!COM: Fux, Johann Joseph
!!!OMD: Gradus ad Parnassum Exercise
!!!YEC: CC0 1.0 Universal (Public Domain). Mark Gotham and FourScoreAndMore.org waive all rights to this document.
**kern	**kern	**kern	**kern
*part4	*part3	*part2	*part1
*staff4	*staff3	*staff2	*staff1
*I"4	*I"3	*I"2	*I"1
*I'Pno	*I'Pno	*I'Pno	*I'Pno
!!LO:LB:g=z
*clefF4	*clefGv2	*clefG2	*clefG2
*k[]	*k[]	*k[]	*k[]
!!LO:TX:omd:t=
*M4/4	*M4/4	*M4/4	*M4/4
=55	=55	=55	=55
!	!	!	!LO:TX:a:t=Fig. 167; Species&colon; 1; Modal final&colon; e; Cantus firmus&colon; 2
1E	1B	1e	1g#X
=56	=56	=56	=56
1F	1A	1c	1a
=57	=57	=57	=57
1D	1A	1d	1f
=58	=58	=58	=58
1AA	1A	1c	1e
=59	=59	=59	=59
1AA	1c	1A	1e
=60	=60	=60	=60
1F	1c	1a	1f
=61	=61	=61	=61
1E	1e	1g	1cc
=62	=62	=62	=62
1A	1c	1e	1cc
=63	=63	=63	=63
1D	1d	1f	1a
=64	=64	=64	=64
1E	1B	1e	1g#X
==	==	==	==
*-	*-	*-	*-
!!!software: music21 v.9.7.1
!!!software: music21 v.9.7.1
!!!software: MuseScore 3.4.2
!!!RDF**kern: > = above
!!!RDF**kern: < = below
